src/images/medium-logo.svg

<?xml version="1.0" encoding="UTF-8"?>
<svg width="32px" height="32px" viewBox="0 0 32 32" version="1.1" xmlns="http://www.w3.org/2000/svg" xmlns:xlink="http://www.w3.org/1999/xlink">
    <!-- Generator: Sketch 61 (89581) - https://sketch.com -->
    <title>Monogram</title>
    <desc>Created with Sketch.</desc>
    <g id="work" stroke="none" stroke-width="1" fill="none" fill-rule="evenodd">
        <g id="Current-Favorite-10-Dec-2019-Copy-4" transform="translate(-156.000000, -441.000000)" fill="#6600FF" fill-rule="nonzero">
            <g id="Monogram" transform="translate(156.000000, 441.000000)">
                <path d="M8.38985851,11.2639624 C8.41489812,11.0165626 8.32055385,10.7720355 8.13581843,10.6055262 L6.25404008,8.33862434 L6.25404008,8 L12.0969619,8 L16.6132299,17.9047618 L20.5837823,8 L26.1538462,8 L26.1538462,8.33862434 L24.5449257,9.88124632 C24.4062191,9.98697657 24.3374135,10.1607517 24.3661568,10.3327454 L24.3661568,21.6672546 C24.3374135,21.8392483 24.4062191,22.0130234 24.5449257,22.1187537 L26.1162106,23.6613757 L26.1162106,24 L18.2127415,24 L18.2127415,23.6613757 L19.8404798,22.0811288 C20.0004309,21.9212228 20.0004309,21.8741917 20.0004309,21.6296297 L20.0004309,12.46796 L15.474754,23.9623751 L14.863176,23.9623751 L9.59419665,12.46796 L9.59419665,20.1716637 C9.55026582,20.4955491 9.65783383,20.8216308 9.88587229,21.0558495 L12.0028729,23.6237508 L12.0028729,23.9623751 L6,23.9623751 L6,23.6237508 L8.11700065,21.0558495 C8.34337878,20.8212425 8.44467443,20.4929977 8.38985851,20.1716637 L8.38985851,11.2639624 Z" id="Shape"></path>
                <path d="M0,0 L0,32 L32,32 L32,0 L0,0 Z M30.0206186,30.0206186 L1.97938144,30.0206186 L1.97938144,1.97938144 L30.0206186,1.97938144 L30.0206186,30.0206186 Z" id="Shape"></path>
            </g>
        </g>
    </g>
</svg>

<svg width="32" height="32" xmlns="http://www.w3.org/2000/svg"><g fill="#60F" fill-rule="nonzero"><path d="M8.39 11.264a.78.78 0 00-.254-.658L6.254 8.339V8h5.843l4.516 9.905L20.583 8h5.57v.339L24.546 9.88a.47.47 0 00-.179.452v11.334a.47.47 0 00.179.452l1.571 1.542V24h-7.903v-.339l1.627-1.58c.16-.16.16-.207.16-.451v-9.162l-4.525 11.494h-.612L9.594 12.468v7.704c-.044.324.064.65.292.884l2.117 2.568v.338H6v-.338l2.117-2.568c.226-.235.328-.563.273-.884v-8.908z"/><path d="M0 0v32h32V0H0zm30.02 30.02H1.98V1.98h28.04v28.04z"/></g></svg>
